toolkits/global/packages/global-context/img/icons/circle.svg

<svg height="24" viewBox="0 0 24 24" width="24" xmlns="http://www.w3.org/2000/svg"><path d="m12 16c2.209139 0 4-1.790861 4-4s-1.790861-4-4-4-4 1.790861-4 4 1.790861 4 4 4zm0 2c-3.3137085 0-6-2.6862915-6-6s2.6862915-6 6-6 6 2.6862915 6 6-2.6862915 6-6 6z" fill="#666" fill-rule="evenodd"/></svg>

<?xml version="1.0" encoding="UTF-8"?>
<svg width="24px" height="24px" viewBox="0 0 24 24" version="1.1" xmlns="http://www.w3.org/2000/svg" xmlns:xlink="http://www.w3.org/1999/xlink">
    <!-- Generator: Sketch 63.1 (92452) - https://sketch.com -->
    <title>icon-icon / circle</title>
    <desc>Created with Sketch.</desc>
    <g id="icon-/-circle" stroke="none" stroke-width="1" fill="none" fill-rule="evenodd">
        <path d="M12,16 C14.209139,16 16,14.209139 16,12 C16,9.790861 14.209139,8 12,8 C9.790861,8 8,9.790861 8,12 C8,14.209139 9.790861,16 12,16 Z M12,18 C8.6862915,18 6,15.3137085 6,12 C6,8.6862915 8.6862915,6 12,6 C15.3137085,6 18,8.6862915 18,12 C18,15.3137085 15.3137085,18 12,18 Z" id="circle" fill="#666666"></path>
    </g>
</svg>
